X:1
T:Title
%%score { ( 1 3 ) | ( 2 4 ) }
L:1/8
Q:1/4=94
M:4/4
K:D
V:1 treble nm="Grand Piano"
V:3 treble 
V:2 bass 
V:4 bass 
V:1
 FF=F^F BADE | D4 [A,C]4 |[M:2/4] [CG][CG] [=CF][^CG] | [Ec][CB] [CE][C=F] |[M:4/4] [DF]6 z2 | %5
w: Thoro~Harris * * * * * * *|||||
 [A,DF][A,DF][^G,D=F][A,D^F] [B,DB][A,CA][K:bass][F,D][=G,B,E] | [A,D]4 [A,C]4 | [A,CE]E^DE FdB^G | %8
w: |||
 A-[EA-][EA-][FA-] [GA]4 | [FA][FA][=F^G][^FA] [^DB][DB][DF][DA] | A4 G4 | %11
w: |||
 EFG[FA] [Ec][DB][CA][CE] | F6 z2 | [DA][DA][D^G][DA] [^DB][DB][DA][DF] | %14
w: |||
 E4[K:bass][K:treble] E2 z2 | cBEF AGC[CE] | D8 |] %17
w: |||
V:2
 [D,A,D][D,A,D][D,^G,D][D,A,D] [D,=G,D][D,F,D][D,F,A,][D,F,A,] | .[G,A,]2 G,E, z2 F,2 | %2
[M:2/4] [A,,E,][A,,E,] [A,,^D,][A,,E,] | [A,,G,][A,,G,] [A,,G,][A,,G,] | %4
[M:4/4] .[D,F,]2 F,B, A,2 z2 | D,C,B,,A,, G,,F,,B,,G,, | z G,F,D, z2 E,2 | %7
 A,,[E,A,C][F,A,=C][E,A,^C] [E,^G,D][E,A,F][E,G,E][E,B,D] | [A,,A,][A,C][G,C][F,D] [E,C]4 | %9
 [D,D][D,C][D,B,][D,A,] [B,,A,][B,,A,][B,,A,][B,,B,] | .E2 z2 [B,E]2 ^A,2 | %11
 [G,A,C][F,A,D][E,A,E][D,A,] [A,,G,][A,,F,][A,,E,][A,,A,] | .[A,D]2 CB, A,2 z2 | %13
 [=C,F,][C,F,][C,F,][C,F,] [B,,F,][B,,F,][B,,B,][B,,A,] | [E,G,]E,E,E, E,2 E,2 | %15
 [A,EG][A,CG][K:bass][G,B,][F,A,^D] [E,B,E][E,B,][A,,G,][A,,G,] | F,F,G,G, F,4 |] %17
V:3
 x8 | z A,3 G,2 z2 |[M:2/4] x4 | x4 |[M:4/4] x8 | x6[K:bass] x2 | .F,2 z2 F,2 z2 | x8 | .C2 z2 z4 | %9
 x8 | z ^DEF z2 =D2 | x8 | z D3- D2 z2 | x8 | z[K:bass] F,G,B,[K:treble] [GB]2- [DGB]2 | x8 | %16
 z A,B,B, A,4 |] %17
V:4
 x8 | E,4 A,,4 |[M:2/4] x4 | x4 |[M:4/4] z D,3- D,2 z2 | x8 | A,,4 A,,4 | x8 | x8 | x8 | %10
 [E,B,]4 E,4 | x8 | D,6 z2 | x8 | x8 | x2[K:bass] x6 | D,8 |] %17

